X: 129021
M: 2/4
L: 1/16
K: D
uA2 !segno!|\
d4 (fe)de | f2d2 dedc |\
d4 (fe)de | f2d2 dedc |\
(AG) |\
d3e gfed | a3b agf"_D.C."e |]


